X:297
T: ICH ARMES WALDHAESELEIN
N: E0169A
O: Europa, Mitteleuropa, Deutschland, Schlesien, Neisse
R: erzaehlendes Volks - Lied, Sage, Tier - Maerchen
M: 2/4
L: 1/16
K: F
C2 | F4A2A2 | G3Gc2
B2 | A4G4 | F4z2
C2 | F2F2A2A2 | G4c2
B2 | A4G4 | F4z2
F2 | A2A2G2cB | A4G2
F2 | A2A2G2cB | A4G2
C2 | F6A2 | G6
B2 | A3Bc2d2 | c6
cB | A2A2G2cB | A4G2
cB | A4G4 | F4z2

